pix/lsu/cengage.svg

<?xml version="1.0" encoding="UTF-8" standalone="no"?><!DOCTYPE svg PUBLIC "-//W3C//DTD SVG 1.1//EN" "http://www.w3.org/Graphics/SVG/1.1/DTD/svg11.dtd"><svg width="100%" height="100%" viewBox="0 0 46 46" version="1.1" xmlns="http://www.w3.org/2000/svg" xmlns:xlink="http://www.w3.org/1999/xlink" xml:space="preserve" xmlns:serif="http://www.serif.com/" style="fill-rule:evenodd;clip-rule:evenodd;stroke-linejoin:round;stroke-miterlimit:2;"><g><path d="M10.161,8.159l6.855,2.364l-1.095,5.587l-9.503,-3.275l2.337,-4.11c0.347,-0.61 0.809,-0.772 1.406,-0.566" style="fill:#002d4b;"/><path d="M0.473,25.815l5.983,-5.337l4.637,4.134l-8.297,7.401l-2.565,-4.524c-0.383,-0.671 -0.281,-1.208 0.242,-1.674" style="fill:#005176;"/><path d="M11.209,44.059l-1.71,-8.73l6.422,-2.215l2.373,12.104l-5.651,0c-0.84,0 -1.285,-0.397 -1.434,-1.159" style="fill:#008fc6;"/></g><path d="M33.243,43.697l-9.123,-3.145l1.458,-7.438l12.647,4.36l-3.11,5.47c-0.462,0.813 -1.074,1.029 -1.872,0.753" style="fill:#00acdc;"/><path d="M44.54,23.01l-7.964,7.104l-6.17,-5.501l11.043,-9.851l3.416,6.022c0.507,0.893 0.371,1.605 -0.325,2.226" style="fill:#6bc7e4;"/><path d="M31.851,1.542l2.277,11.621l-8.55,2.947l-3.159,-16.11l7.523,0c1.114,0 1.71,0.528 1.909,1.543" style="fill:#89d0e9;"/></svg>

<?xml version="1.0" encoding="UTF-8" standalone="no"?>
<!DOCTYPE svg PUBLIC "-//W3C//DTD SVG 1.1//EN" "http://www.w3.org/Graphics/SVG/1.1/DTD/svg11.dtd">
<svg width="100%" height="100%" viewBox="0 0 512 512" version="1.1" xmlns="http://www.w3.org/2000/svg" xmlns:xlink="http://www.w3.org/1999/xlink" xml:space="preserve" xmlns:serif="http://www.serif.com/" style="fill-rule:evenodd;clip-rule:evenodd;stroke-linejoin:round;stroke-miterlimit:2;">
    <g transform="matrix(7.43749,0,0,7.43749,87.6088,87.4548)">
        <path d="M10.161,8.159L17.016,10.523L15.921,16.11L6.418,12.835L8.755,8.725C9.102,8.115 9.564,7.953 10.161,8.159" style="fill:rgb(70,29,124);"/>
    </g>
    <g transform="matrix(7.43749,0,0,7.43749,87.6088,87.4548)">
        <path d="M0.473,25.815L6.456,20.478L11.093,24.612L2.796,32.013L0.231,27.489C-0.152,26.818 -0.05,26.281 0.473,25.815" style="fill:rgb(105,43,186);"/>
    </g>
    <g transform="matrix(7.43749,0,0,7.43749,87.6088,87.4548)">
        <path d="M11.209,44.059L9.499,35.329L15.921,33.114L18.294,45.218L12.643,45.218C11.803,45.218 11.358,44.821 11.209,44.059" style="fill:rgb(144,90,216);"/>
    </g>
    <g transform="matrix(7.43749,0,0,7.43749,87.6088,87.4548)">
        <path d="M33.243,43.697L24.12,40.552L25.578,33.114L38.225,37.474L35.115,42.944C34.653,43.757 34.041,43.973 33.243,43.697" style="fill:rgb(186,152,231);"/>
    </g>
    <g transform="matrix(7.43749,0,0,7.43749,87.6088,87.4548)">
        <path d="M44.54,23.01L36.576,30.114L30.406,24.613L41.449,14.762L44.865,20.784C45.372,21.677 45.236,22.389 44.54,23.01" style="fill:rgb(227,214,245);"/>
    </g>
    <g transform="matrix(7.43749,0,0,7.43749,87.6088,87.4548)">
        <path d="M31.851,1.542L34.128,13.163L25.578,16.11L22.419,0L29.942,0C31.056,0 31.652,0.528 31.851,1.543" style="fill:rgb(241,234,250);"/>
    </g>
</svg>
